icons/svg/message-text-outline.svg

﻿<?xml version="1.0" encoding="utf-8"?>
<!DOCTYPE svg PUBLIC "-//W3C//DTD SVG 1.1//EN" "http://www.w3.org/Graphics/SVG/1.1/DTD/svg11.dtd">
<svg xmlns="http://www.w3.org/2000/svg" xmlns:xlink="http://www.w3.org/1999/xlink" version="1.1" baseProfile="full" width="24" height="24" viewBox="0 0 24.00 24.00" enable-background="new 0 0 24.00 24.00" xml:space="preserve">
	<path fill="#000000" fill-opacity="1" stroke-width="0.2" stroke-linejoin="round" d="M 19.9994,1.99807C 21.1029,1.99807 21.9994,2.89307 21.9994,3.99807L 21.9994,15.9981C 21.9994,17.1021 21.1029,17.9981 19.9994,17.9981L 5.99938,17.9981L 1.99938,21.9981L 2.01038,3.99807C 2.01038,2.89307 2.89539,1.99807 3.99938,1.99807L 19.9994,1.99807 Z M 4,4.00001L 4,17.1716L 5.17157,16L 20,16L 20,4.00001L 4,4.00001 Z M 6,7L 18,7.00001L 18,9L 6,9L 6,7 Z M 6,11L 15,11L 15,13L 6,13L 6,11 Z "/>
</svg>

<svg xmlns="http://www.w3.org/2000/svg" version="1.1" baseProfile="full" width="24" height="24" viewBox="0 0 24.00 24.00" xml:space="preserve"><path fill="#000" fill-opacity="1" stroke-width=".2" stroke-linejoin="round" d="M20 1.998c1.103 0 2 .895 2 2v12c0 1.104-.897 2-2 2H6l-4 4 .01-18c0-1.105.885-2 1.99-2h16zM4 4v13.172L5.172 16H20V4H4zm2 3h12v2H6V7zm0 4h9v2H6v-2z"/></svg>
